X:56
T:Polska ur Petter Dufvas notbok (Ma6-56)
R:Polska
O:Verkelbäck, Småland
B:Petter Dufvas notbok
S:Petter Dufva
N:Smus Ma6 bild 56
M:3/4
L:1/8
K:D
dc/2B/2 A2 G2 | GF/2E/2 D2 d2 | dc/2B/2 A2 ^G2 | A2 A4 :|:
(A/2B/2c/2d/2) e2 c2 | Ad/2e/2 f2 d2 | Ad g2 f2 | e2 e4 |
dc/2B/2 A2 G2 | GF/2E/2 D2 d2 | dc/2d/2 e2 dc | d2 D4 :|

